X:100 
T:Lackagh Cross (polka)
F:file ID: cre.5/100lack_c
B:CRE5.103 (Polca Chrosaire an Leacaigh)
L:1/16
M:2/4
Q:120
R:polka
K:G
Bc|d2ed B2d2|efed efge|d2ed BddA|B2A2 A3B|
d2ed B2d2|efed efge|d2ed BddA|B2G2G2:|
(3|:def|g2gf gbaf|g2e2 edBd|e2ed efag|f2d2 d2(3def|
g2gf gbaf|g2e2 edBd|d2ed BddA|1 B2G2G2:|2 B2G2 HG4|]

%%%

